gama.ui.shared/icons_svg/dark/navigator/files/file.shape.svg

<svg height="16.751" viewBox="-690.872 -3501.737 16.75 16.751" width="16.75" xmlns="http://www.w3.org/2000/svg"><g fill="none"><path d="m-690.4969-3501.361h15.999997v15.999997h-15.999997z"/><path d="m-686.6573-3500.5942 4.96-.16 3.36-.16 3.2 3.2-.16 11.68h-11.36z" fill="#666566"/><path d="m-674.4977-3497.7386v10.3776c0 1.1046-.8955 2-2 2h-8.8c-1.1046 0-2-.8954-2-2v-12c0-1.1046.8954-2 2-2h7.1776c.1062-.0067.2167.0287.3052.117l3.2 3.2c.0885.0886.1239.199.1172.3054zm-4-2.8224h-6.8c-.6628 0-1.2.5373-1.2 1.2v12c0 .6627.5372 1.2 1.2 1.2h8.8c.6627 0 1.2-.5373 1.2-1.2v-10h-2.8c-.22095 0-.4-.179-.4-.4zm.8.5657v1.8343h1.8343zm-1.6 11.4333h-3.2c0 .442-.3582.8-.8.8h-.8c-.4419 0-.8-.358-.8-.8v-.8c0-.4416.3581-.8.8-.8v-3.2c-.4419 0-.8-.358-.8-.8v-.8c0-.4416.3581-.8.8-.8h.8c.4418 0 .8.3584.8.8h3.2c0-.4416.3581-.8.8-.8h.8c.4418 0 .8.3584.8.8v.8c0 .442-.3582.8-.8.8v3.2c.4418 0 .8.3584.8.8v.8c0 .442-.3582.8-.8.8h-.8c-.4419 0-.8-.358-.8-.8zm0-.8c0-.4416.3581-.8.8-.8v-3.2c-.4419 0-.8-.358-.8-.8h-3.2c0 .442-.3582.8-.8.8v3.2c.4418 0 .8.3584.8.8zm1.0749 0h-.2749v.8h.8v-.8h-.27494c-.03936.013-.08141.02-.12506.02-.0437 0-.0858-.007-.1251-.02zm-5.6 0h-.2749v.8h.8v-.8h-.2749c-.0394.013-.08145.02-.1251.02-.0437 0-.0858-.007-.1251-.02zm-.2749-5.6v.8h.8v-.8zm5.6 0v.8h.8v-.8z" fill="#fff"/></g></svg>

<?xml version="1.0" encoding="UTF-8" standalone="no"?>
<!DOCTYPE svg PUBLIC "-//W3C//DTD SVG 1.1//EN" "http://www.w3.org/Graphics/SVG/1.1/DTD/svg11.dtd">
<svg xmlns="http://www.w3.org/2000/svg" version="1.1" xmlns:xl="http://www.w3.org/1999/xlink" xmlns:dc="http://purl.org/dc/elements/1.1/" viewBox="-690.8719 -3501.737 16.749997 16.7508" width="16.749997" height="16.7508">
  <defs/>
  <g id="SOURCES" stroke-opacity="1" stroke-dasharray="none" fill="none" fill-opacity="1" stroke="none">
    <title>SOURCES</title>
    <g id="SOURCES_Dark">
      <title>Dark</title>
      <g id="Graphic_11643">
        <rect x="-690.4969" y="-3501.361" width="15.999997" height="15.999997" stroke="gray" stroke-opacity="0" stroke-linecap="round" stroke-linejoin="round" stroke-width="0"/>
      </g>
      <g id="Graphic_11642">
        <path d="M -686.6573 -3500.5942 L -681.6973 -3500.7542 L -678.3373 -3500.9142 L -675.1373 -3497.7142 L -675.2973 -3486.0342 L -686.6573 -3486.0342 Z" fill="#666566"/>
      </g>
      <g id="Graphic_11641">
        <path d="M -674.4977 -3497.7386 L -674.4977 -3487.361 C -674.4977 -3486.2564 -675.3932 -3485.361 -676.4977 -3485.361 L -685.2977 -3485.361 C -686.4023 -3485.361 -687.2977 -3486.2564 -687.2977 -3487.361 L -687.2977 -3499.361 C -687.2977 -3500.4656 -686.4023 -3501.361 -685.2977 -3501.361 L -678.1201 -3501.361 C -678.0139 -3501.3677 -677.9034 -3501.3323 -677.8149 -3501.244 L -674.6149 -3498.044 C -674.5264 -3497.9554 -674.491 -3497.845 -674.4977 -3497.7386 Z M -678.4977 -3500.561 L -685.2977 -3500.561 C -685.9605 -3500.561 -686.4977 -3500.0237 -686.4977 -3499.361 L -686.4977 -3487.361 C -686.4977 -3486.6983 -685.9605 -3486.161 -685.2977 -3486.161 L -676.4977 -3486.161 C -675.835 -3486.161 -675.2977 -3486.6983 -675.2977 -3487.361 L -675.2977 -3497.361 L -678.0977 -3497.361 C -678.31865 -3497.361 -678.4977 -3497.54 -678.4977 -3497.761 Z M -677.6977 -3499.9953 L -677.6977 -3498.161 L -675.8634 -3498.161 Z M -679.2977 -3488.562 L -682.4977 -3488.562 C -682.4977 -3488.12 -682.8559 -3487.762 -683.2977 -3487.762 L -684.0977 -3487.762 C -684.5396 -3487.762 -684.8977 -3488.12 -684.8977 -3488.562 L -684.8977 -3489.362 C -684.8977 -3489.8036 -684.5396 -3490.162 -684.0977 -3490.162 L -684.0977 -3493.362 C -684.5396 -3493.362 -684.8977 -3493.72 -684.8977 -3494.162 L -684.8977 -3494.962 C -684.8977 -3495.4036 -684.5396 -3495.762 -684.0977 -3495.762 L -683.2977 -3495.762 C -682.8559 -3495.762 -682.4977 -3495.4036 -682.4977 -3494.962 L -679.2977 -3494.962 C -679.2977 -3495.4036 -678.9396 -3495.762 -678.4977 -3495.762 L -677.6977 -3495.762 C -677.2559 -3495.762 -676.8977 -3495.4036 -676.8977 -3494.962 L -676.8977 -3494.162 C -676.8977 -3493.72 -677.2559 -3493.362 -677.6977 -3493.362 L -677.6977 -3490.162 C -677.2559 -3490.162 -676.8977 -3489.8036 -676.8977 -3489.362 L -676.8977 -3488.562 C -676.8977 -3488.12 -677.2559 -3487.762 -677.6977 -3487.762 L -678.4977 -3487.762 C -678.9396 -3487.762 -679.2977 -3488.12 -679.2977 -3488.562 Z M -679.2977 -3489.362 C -679.2977 -3489.8036 -678.9396 -3490.162 -678.4977 -3490.162 L -678.4977 -3493.362 C -678.9396 -3493.362 -679.2977 -3493.72 -679.2977 -3494.162 L -682.4977 -3494.162 C -682.4977 -3493.72 -682.8559 -3493.362 -683.2977 -3493.362 L -683.2977 -3490.162 C -682.8559 -3490.162 -682.4977 -3489.8036 -682.4977 -3489.362 L -679.2977 -3489.362 Z M -678.2228 -3489.362 L -678.4977 -3489.362 L -678.4977 -3488.562 L -677.6977 -3488.562 L -677.6977 -3489.362 L -677.97264 -3489.362 C -678.012 -3489.349 -678.05405 -3489.342 -678.0977 -3489.342 C -678.1414 -3489.342 -678.1835 -3489.349 -678.2228 -3489.362 Z M -683.8228 -3489.362 L -684.0977 -3489.362 L -684.0977 -3488.562 L -683.2977 -3488.562 L -683.2977 -3489.362 L -683.5726 -3489.362 C -683.612 -3489.349 -683.65405 -3489.342 -683.6977 -3489.342 C -683.7414 -3489.342 -683.7835 -3489.349 -683.8228 -3489.362 Z M -684.0977 -3494.962 L -684.0977 -3494.162 L -683.2977 -3494.162 L -683.2977 -3494.962 Z M -678.4977 -3494.962 L -678.4977 -3494.162 L -677.6977 -3494.162 L -677.6977 -3494.962 Z" fill="white"/>
      </g>
    </g>
  </g>
</svg>
